X:192
%%topspace -50
%%musicspace -10
T:Scotland the Brave
M:4/4
L:1/4
K:G
D | "G"G2 G3/A/ | BGBd | g2g3/f/ | gdBG | "C"c2e3/c/ | "G"BdBG | "D7"A2d3/e/ | dcBA | 
"G"G2 G3/A/ | BGBd | g2g3/f/ | gdBG | "C"c2e3/c/ | "G"BdBG | "D7"A2 "G"G3/F/ | "G"G2 d/e/f/g/ ||
"D"a2 a3/a/ | afdf | "G"g2b3/a/ | gdBd | g2g3/g/ | "D"f2g3/f/ | "Am"egfe | "D7"dcBA | 
"G"G2 G3/A/ | BGBd | g2g3/f/ | gdBG | "C"c2e3/c/ | "G"BdBG | "D7"A2 "G"G3/F/ | "G"G3 |]

